public/svg/streaming/animelab.svg

<?xml version="1.0" encoding="UTF-8" standalone="no"?>
<svg width="44px" height="50px" viewBox="0 0 44 50" version="1.1" xmlns="http://www.w3.org/2000/svg" xmlns:xlink="http://www.w3.org/1999/xlink">
    <defs></defs>
    <g stroke="none" stroke-width="1" fill="none" fill-rule="evenodd">
        <g transform="translate(-4.000000, 0.000000)" fill="#3E307C">
            <g transform="translate(4.000000, 0.000000)">
                <path d="M21.607089,0.105580694 C21.7383107,-0.0150829563 21.8695324,0.137254902 21.9630468,0.226244344 C22.2254902,0.350678733 22.515083,0.432126697 22.7036199,0.667420814 C22.9977376,0.825791855 23.2993967,0.990950226 23.6168929,1.10859729 C24.0030166,1.53016591 24.638009,1.58446456 25.0173454,2.00754148 C25.3582202,2.08295626 25.638009,2.31221719 25.9110106,2.52187029 C26.1395173,2.61312217 26.3559578,2.73529412 26.5686275,2.85520362 C26.7586727,2.89064857 26.8793363,3.0505279 27.0316742,3.15535445 C27.4057315,3.34238311 27.8084465,3.49773756 28.1168929,3.78808446 C28.193816,3.87481146 28.3378582,3.83408748 28.4140271,3.92232278 C28.6168929,4.12217195 28.9457014,4.12292609 29.1432881,4.32880845 C29.4193062,4.62292609 29.8717949,4.64630468 30.1372549,4.95927602 C30.4396682,5.08974359 30.7187029,5.26923077 31.0248869,5.39064857 C31.1101056,5.4638009 31.1855204,5.54826546 31.2631976,5.62971342 C31.5384615,5.70739065 31.7790347,5.86877828 32.0354449,5.99245852 C32.2511312,6.08220211 32.3883861,6.29638009 32.6191554,6.35822021 C32.9509804,6.54524887 33.3144796,6.66515837 33.5942685,6.92986425 C33.8763198,7.06108597 34.1794872,7.16968326 34.3680241,7.43363499 C34.7941176,7.58898944 35.2134238,7.79562594 35.5603318,8.09426848 C35.8634992,8.20588235 36.1304676,8.3959276 36.4291101,8.5158371 C36.775264,8.82579186 37.2300151,8.97134238 37.6259427,9.20060332 C37.8295626,9.48717949 38.2164404,9.49321267 38.4683258,9.72021116 C38.8634992,10.0641026 39.4260935,10.1463047 39.7963801,10.5233786 C40.127451,10.6372549 40.4095023,10.861991 40.724736,11.0060332 C40.9600302,11.3197587 41.4095023,11.3031674 41.6636501,11.5897436 C42.0384615,11.8868778 42.5633484,11.9630468 42.8846154,12.3333333 C43.071644,12.3831071 43.3295626,12.4645551 43.3589744,12.6840121 C43.3567119,20.9155354 43.361991,29.147813 43.3559578,37.3793363 C43.2662142,37.4962293 43.1470588,37.6085973 42.9939668,37.6304676 C42.800905,37.6613876 42.7277526,37.8921569 42.5392157,37.9404223 C42.1809955,38.1297134 41.7775264,38.2609351 41.4954751,38.5641026 C41.199095,38.6772247 40.8959276,38.7835596 40.6817496,39.0279035 C40.4019608,39.127451 40.173454,39.3310709 39.89819,39.4374057 C39.7111614,39.4834087 39.6184012,39.6847662 39.4374057,39.7435897 C39.0603318,39.9313725 38.6598793,40.0882353 38.3461538,40.3770739 C38.0444947,40.5007541 37.7594268,40.6538462 37.4758673,40.806184 C37.2669683,41.0392157 36.9645551,41.127451 36.6968326,41.2699849 C36.5980392,41.3567119 36.4969834,41.4411765 36.3861237,41.5113122 C36.0957768,41.6108597 35.8514329,41.806184 35.5603318,41.9057315 C35.2134238,42.2043741 34.7941176,42.4110106 34.3680241,42.566365 C34.1153846,42.9366516 33.6244344,42.9645551 33.3280543,43.2828054 C33.0241327,43.4193062 32.73454,43.5987934 32.4253394,43.7315234 C32.0882353,44.0211161 31.6742081,44.2134238 31.2631976,44.3702866 C30.9321267,44.7865762 30.3325792,44.8303167 29.9570136,45.1968326 C29.7187029,45.3733032 29.3966817,45.4200603 29.1832579,45.6349925 C28.9901961,45.8687783 28.6470588,45.86727 28.4276018,46.066365 C28.3514329,46.1651584 28.1983409,46.1236802 28.1161388,46.2126697 C27.7209653,46.6093514 27.1251885,46.699095 26.7269985,47.0904977 C26.4479638,47.1900452 26.1832579,47.3340875 25.9600302,47.5316742 C25.7481146,47.6877828 25.4660633,47.7315234 25.2790347,47.9238311 C25.0822021,47.9419306 24.9328808,48.0429864 24.8069382,48.1907994 C24.433635,48.4200603 23.9781297,48.5392157 23.6621418,48.8574661 C23.26546,49.0746606 22.7865762,49.193816 22.4758673,49.5467572 C22.2390649,49.6621418 21.9690799,49.7285068 21.7865762,49.9306184 C21.6463047,49.974359 21.5686275,49.8499246 21.4751131,49.775264 C21.2134238,49.6493213 20.9223228,49.5701357 20.7360483,49.3325792 C20.4396682,49.1749623 20.1387632,49.0067873 19.8190045,48.8936652 C19.4374057,48.4675716 18.7986425,48.4177979 18.4215686,47.9917044 C18.0799397,47.918552 17.8001508,47.688537 17.5279035,47.4781297 C17.2993967,47.3868778 17.0822021,47.26546 16.8702866,47.1455505 C16.678733,47.1101056 16.5588235,46.9487179 16.4064857,46.8446456 C16.0331825,46.6576169 15.6297134,46.5030166 15.3220211,46.2119155 C15.245098,46.1244344 15.0995475,46.1666667 15.0248869,46.0784314 C14.8220211,45.8763198 14.4917044,45.8785822 14.2948718,45.6711916 C14.0196078,45.3755656 13.5656109,45.3552036 13.3016591,45.040724 C12.9984917,44.9102564 12.719457,44.7307692 12.4140271,44.6093514 C12.3280543,44.5354449 12.2526395,44.4517345 12.1757164,44.3702866 C11.8996983,44.2926094 11.6591252,44.1312217 11.4027149,44.0075415 C11.1870287,43.9177979 11.0497738,43.7036199 10.8197587,43.6425339 C10.4886878,43.4555053 10.1259427,43.3363499 9.84690799,43.071644 C9.56485671,42.938914 9.25942685,42.831825 9.07088989,42.566365 C8.64479638,42.4110106 8.2254902,42.2043741 7.8785822,41.9057315 C7.56334842,41.7782805 7.26998492,41.6003017 6.9668175,41.4532428 C6.68325792,41.1561086 6.23604827,41.1168929 5.96229261,40.806184 C5.66817496,40.6387632 5.35520362,40.4992459 5.0520362,40.3461538 C4.64630468,39.953997 4.03996983,39.8740573 3.64253394,39.4766214 C3.3107089,39.3634992 3.03016591,39.138009 2.71493213,38.994721 C2.47888386,38.6794872 2.02865762,38.6975867 1.77526395,38.4102564 C1.39668175,38.1116139 0.871040724,38.0339367 0.54826546,37.6621418 C0.355957768,37.6349925 0.206636501,37.5263952 0.0739064857,37.3906486 C0.0882352941,32.0414781 0.0761689291,26.6915535 0.0799396682,21.3423831 C0.0761689291,18.4313725 0.0882352941,15.5196078 0.0746606335,12.6085973 C0.208144796,12.4751131 0.357466063,12.3657617 0.54826546,12.3378582 C0.87254902,11.9668175 1.3974359,11.8883861 1.77526395,11.5904977 C2.03016591,11.3046757 2.47812971,11.3190045 2.71493213,11.0060332 C3.03092006,10.8627451 3.31146305,10.638009 3.64253394,10.5233786 C3.97737557,10.1877828 4.46003017,10.081448 4.8453997,9.82051282 C5.22926094,9.46455505 5.7918552,9.39894419 6.16063348,9.02337858 C6.33333333,8.90346908 6.53921569,8.84162896 6.72473605,8.74358974 C6.87104072,8.61764706 7.01809955,8.4811463 7.20889894,8.42911011 C7.42986425,8.31297134 7.64328808,8.18099548 7.8785822,8.09426848 C8.2254902,7.79562594 8.64555053,7.58974359 9.07088989,7.43363499 C9.42609351,6.97812971 10.071644,6.93514329 10.4615385,6.52865762 C10.7413273,6.39517345 11.0369532,6.28959276 11.2631976,6.07088989 C11.5625943,5.91553544 11.852187,5.73001508 12.1757164,5.62971342 C12.2918552,5.50603318 12.4012066,5.3627451 12.5769231,5.32579186 C12.8129713,5.19306184 13.0573152,5.07616893 13.3016591,4.95927602 C13.5671192,4.64630468 14.0188537,4.62292609 14.2956259,4.32880845 C14.5067873,4.11236802 14.8604827,4.11613876 15.0648567,3.88612368 C15.1689291,3.84841629 15.2911011,3.84615385 15.3650075,3.75188537 C15.7564103,3.38159879 16.3280543,3.28959276 16.7126697,2.91025641 C17.0007541,2.81900452 17.239819,2.6214178 17.5271493,2.52187029 C17.8001508,2.31221719 18.0799397,2.08220211 18.4223228,2.00754148 C18.73454,1.65309201 19.2269985,1.56108597 19.6048265,1.29713424 C19.9773756,0.926847662 20.5769231,0.892156863 20.9268477,0.487179487 C21.1372549,0.335595777 21.4313725,0.309954751 21.607089,0.105580694 L21.607089,0.105580694 Z M21.5550528,17.0799397 C21.4449472,17.4012066 21.2722474,17.6953243 21.0565611,17.9562594 C20.7488688,18.4720965 20.428356,18.9788839 20.0708899,19.4615385 C19.6199095,20.3167421 19.015083,21.0776772 18.5241327,21.9087481 C18.2843137,22.4057315 17.8898944,22.8069382 17.6402715,23.2993967 C17.3453997,23.693816 17.0731523,24.1033183 16.8544495,24.546003 C16.0686275,25.6613876 15.3853695,26.8446456 14.6304676,27.979638 C14.3303167,28.3295626 14.1191554,28.739819 13.9049774,29.1440422 C13.5904977,29.5618401 13.3235294,30.0120664 13.0294118,30.4434389 C12.8906486,30.7443439 12.6184012,30.9547511 12.4984917,31.2677225 C12.2594268,31.7933635 11.811463,32.2119155 11.6417798,32.76546 C12.2880845,32.8800905 12.8039216,32.3944193 13.3989442,32.2503771 C14.1214178,32.0082956 14.8220211,31.7081448 15.5384615,31.4494721 C16.1907994,31.1342383 16.9351433,31.0588235 17.561086,30.6855204 C17.8589744,30.5580694 18.1802413,30.4962293 18.4841629,30.3891403 C19.0030166,30.0761689 19.6349925,30.0452489 20.1523379,29.7300151 C20.3446456,29.627451 20.5633484,29.5897436 20.7662142,29.5113122 C21.0799397,29.4419306 21.3506787,29.2586727 21.6538462,29.1591252 C21.8431373,29.1289593 22.0037707,29.2616893 22.1742081,29.3220211 C22.525641,29.5090498 22.9306184,29.5588235 23.2880845,29.7307692 C23.8046757,30.0452489 24.4358974,30.0769231 24.9555053,30.3891403 C25.3076923,30.5173454 25.693816,30.5701357 26.0218703,30.7624434 C26.4547511,31.0015083 26.9472097,31.086727 27.4072398,31.254902 C28.3785822,31.6206637 29.3355958,32.0241327 30.3250377,32.341629 C30.7963801,32.5369532 31.2616893,32.8604827 31.7978884,32.76546 C31.7662142,32.5527903 31.6282051,32.3808446 31.5211161,32.2006033 C31.2390649,31.8137255 31.0060332,31.3951735 30.780543,30.974359 C30.4653092,30.60181 30.245098,30.1621418 29.9615385,29.76546 C29.7639517,29.4321267 29.4969834,29.1447964 29.341629,28.7865762 C29.1553544,28.3702866 28.8174962,28.0490196 28.60181,27.6523379 C27.9125189,26.6259427 27.3001508,25.5520362 26.5837104,24.5452489 C26.3717949,24.1206637 26.1176471,23.7217195 25.8288084,23.3453997 C25.6161388,22.9653092 25.3642534,22.6093514 25.107089,22.2579186 C24.5844646,21.2707391 23.8642534,20.4049774 23.3393665,19.418552 C22.8898944,18.8484163 22.5701357,18.1923077 22.1319759,17.6153846 C22.0346908,17.4434389 21.9509804,17.2647059 21.8838612,17.0799397 C21.7737557,17.0799397 21.6644042,17.0806938 21.5550528,17.0799397 L21.5550528,17.0799397 Z" id="Shape"></path>
            </g>
        </g>
    </g>
</svg>

<svg width="44" height="50" viewBox="0 0 44 50" xmlns="http://www.w3.org/2000/svg"><path d="M21.607.106c.13-.12.263.03.356.12.262.125.552.206.74.44.295.16.596.325.914.443.386.42 1.02.474 1.4.898.34.075.62.304.894.514.23.09.446.213.66.333.19.036.31.196.462.3.374.187.776.343 1.085.633.077.087.22.046.297.134.203.2.532.2.73.407.275.293.728.316.993.63.303.13.582.31.888.43.085.074.16.158.238.24.275.077.516.24.772.362.216.09.353.304.584.366.33.187.694.307.974.572.282.13.585.24.774.504.426.155.845.362 1.192.66.303.112.57.302.87.422.345.31.8.455 1.196.685.204.287.59.293.842.52.395.344.958.426 1.328.803.33.114.614.34.93.483.234.314.684.297.938.584.374.297.9.373 1.22.743.188.05.446.132.475.35-.003 8.233.002 16.465-.004 24.696-.09.116-.21.23-.362.25-.193.03-.266.262-.455.31-.36.19-.762.32-1.045.624-.296.113-.6.22-.813.464-.28.1-.51.303-.784.41-.187.045-.28.247-.46.306-.378.187-.778.344-1.092.633-.302.124-.587.277-.87.43-.21.232-.51.32-.78.463-.098.087-.2.17-.31.24-.29.1-.535.296-.826.396-.347.298-.766.505-1.192.66-.253.37-.744.4-1.04.717-.304.136-.593.316-.903.45-.337.288-.75.48-1.162.637-.33.417-.93.46-1.306.827-.238.176-.56.223-.774.438-.193.234-.536.232-.755.43-.077.1-.23.06-.312.148-.395.396-.99.486-1.39.877-.278.1-.543.244-.766.442-.212.156-.494.2-.68.392-.198.018-.347.12-.473.267-.373.23-.83.35-1.145.667-.397.218-.875.337-1.186.69-.237.115-.507.182-.69.384-.14.044-.217-.08-.31-.155-.263-.126-.554-.205-.74-.442-.296-.158-.597-.326-.917-.44-.383-.425-1.02-.475-1.398-.9-.342-.074-.622-.304-.894-.515-.23-.09-.446-.213-.658-.332-.19-.036-.31-.197-.464-.3-.373-.188-.776-.343-1.084-.634-.077-.088-.222-.045-.297-.134-.203-.202-.533-.2-.73-.407-.275-.294-.73-.315-.993-.63-.304-.13-.583-.31-.888-.43-.086-.075-.16-.158-.238-.24-.276-.077-.517-.24-.773-.362-.216-.09-.353-.304-.583-.365-.33-.187-.694-.307-.973-.57-.282-.134-.588-.24-.776-.507-.425-.155-.845-.362-1.19-.66-.317-.128-.61-.306-.913-.453-.284-.297-.73-.336-1.005-.647-.294-.167-.607-.307-.91-.46-.406-.392-1.012-.472-1.41-.87-.33-.113-.612-.338-.927-.48-.236-.317-.686-.298-.94-.586-.378-.298-.904-.376-1.227-.748-.192-.027-.34-.136-.474-.27.014-5.35.002-10.7.006-16.05-.004-2.91.008-5.822-.005-8.733.133-.135.282-.244.473-.272.325-.37.85-.45 1.227-.748.255-.285.703-.27.94-.584.316-.143.596-.368.928-.483.334-.335.817-.442 1.202-.702.384-.355.947-.42 1.316-.797.173-.12.38-.18.565-.28.146-.125.293-.262.484-.314.22-.117.433-.25.67-.336.345-.298.766-.504 1.19-.66.356-.456 1.002-.5 1.392-.905.28-.135.575-.24.8-.46.3-.154.59-.34.914-.44.116-.124.225-.267.4-.304.237-.133.48-.25.726-.367.265-.314.717-.337.994-.63.21-.218.564-.214.77-.444.103-.038.225-.04.3-.134.39-.37.962-.462 1.347-.842.288-.09.527-.29.814-.388.273-.21.553-.44.895-.514.313-.355.805-.447 1.183-.71.372-.37.972-.406 1.322-.81.21-.152.504-.178.68-.382zm-.052 16.974c-.11.32-.283.615-.498.876-.308.516-.63 1.023-.986 1.506-.45.855-1.055 1.616-1.546 2.447-.24.496-.634.897-.884 1.39-.295.394-.567.803-.786 1.246-.785 1.115-1.47 2.3-2.224 3.434-.3.35-.51.76-.725 1.164-.315.418-.58.868-.876 1.3-.14.3-.412.51-.532.824-.24.525-.687.944-.856 1.497.646.115 1.162-.37 1.757-.515.72-.242 1.422-.542 2.138-.8.653-.316 1.397-.39 2.023-.764.3-.128.62-.19.924-.297.52-.314 1.15-.345 1.668-.66.193-.103.41-.14.614-.22.314-.068.585-.25.888-.35.19-.03.35.102.52.162.352.187.757.237 1.114.41.517.313 1.148.345 1.668.657.352.127.738.18 1.066.372.433.24.925.325 1.385.493.972.366 1.93.77 2.918 1.087.47.195.937.518 1.473.423-.032-.212-.17-.384-.277-.564-.28-.386-.514-.805-.74-1.226-.315-.372-.535-.812-.818-1.21-.198-.332-.465-.62-.62-.977-.187-.417-.525-.738-.74-1.135-.69-1.026-1.302-2.1-2.018-3.107-.212-.424-.466-.823-.755-1.2-.214-.38-.466-.736-.723-1.087-.523-.987-1.243-1.853-1.768-2.84-.45-.57-.77-1.226-1.208-1.803-.097-.172-.18-.35-.248-.535h-.33z" fill="#3E307C" fill-rule="evenodd"/></svg>
